!!!COM: Palestrina, Giovanni Perluigi da
!!!OPR: Ascendo ad Patrem
!!!OTL: Agnus II
**kern	**kern	**kern	**kern	**kern
*Ibass	*Itenor	*Itenor	*Icalto	*Icant
!Bassus	!Tenor 2	!Tenor 1	!Altus	!Cantus
*clefF4	*clefGv2	*clefGv2	*clefG2	*clefG2
*k[]	*k[]	*k[]	*k[]	*k[]
*C:ion	*C:ion	*C:ion	*C:ion	*C:ion
*M4/2	*M4/2	*M4/2	*M4/2	*M4/2
=1	=1	=1	=1	=1
0r	0r	0r	0d	1r
.	.	.	.	1dd
=2	=2	=2	=2	=2
0r	1r	0r	1.g	1.b
.	[1G	.	.	.
.	.	.	2a	2cc
=3	=3	=3	=3	=3
0r	1G]	0r	1b	1dd
.	[1c	.	[1cc	[1ee
=4	=4	=4	=4	=4
0r	2c]	0r	2cc]	2ee]
.	2d	.	4b	4dd
.	.	.	4a	4cc
.	1e	.	2g	2b
.	.	.	4cc	4ee
.	.	.	4b	4dd
=5	=5	=5	=5	=5
0r	1f	0r	4a	4cc
.	.	.	4g	4b
.	.	.	2.a	2.cc
.	1e	.	.	.
.	.	.	4g	4b
.	.	.	[2g	4b
.	.	.	.	8a
.	.	.	.	8g
=6	=6	=6	=6	=6
0D	1d	1r	2g]	2.a
.	.	.	4f#	.
.	.	.	4e	4g
.	2r	1d	1f#	2a
.	2d	.	.	[2dd
=7	=7	=7	=7	=7
1.G	2.d	1.B	1g	4dd]
.	.	.	.	4cc
.	.	.	.	4b
.	4c	.	.	4a
.	2B	.	1r	2g
2A	2A	2c	.	2f#
=8	=8	=8	=8	=8
1B	1G	1d	0r	[0g
[1c	1r	1e	.	.
=9	=9	=9	=9	=9
2c]	0G	2e	1r	1g]
4B	.	4d	.	.
4A	.	4c	.	.
2B	.	1d	1g	1r
2G	.	.	.	.
=10	=10	=10	=10	=10
2.A	1.c	0r	1.e	1r
4B	.	.	.	.
[1c	.	.	.	[1g
.	2d	.	2f	.
=11	=11	=11	=11	=11
1c]	1e	0c	1g	1g]
2.F	1f	.	[1a	[1cc
4G	.	.	.	.
=12	=12	=12	=12	=12
2A	2e	1A	1a]	2cc]
2F	1d	.	.	2dd
2.E	.	2B	1g	1ee
.	[2c	2c	.	.
8D	.	.	.	.
8C	.	.	.	.
=13	=13	=13	=13	=13
1D	2c]	1F	2.f	1ff
.	2B	.	.	.
.	.	.	4g	.
1C	1c	1r	2a	2ee
.	.	.	4g	2ee
.	.	.	4f	.
=14	=14	=14	=14	=14
1r	1r	1c	2g	1ee
.	.	.	1cc	.
1G	2r	1g	.	2dd
.	2d	.	2b	2gg
=15	=15	=15	=15	=15
1c	1e	2g	1cc	4gg
.	.	.	.	4ff
.	.	2g	.	4ee
.	.	.	.	4dd
2c	2e	2.a	1r	4cc
.	.	.	.	4b
2d	2f	.	.	2a
.	.	4g	.	.
=16	=16	=16	=16	=16
2d	2d	2f	0r	2b-
2c	2e	2.e	.	1a
1B-	2f	.	.	.
.	.	4d	.	.
.	4e	[2d	.	2g
.	4d	.	.	.
=17	=17	=17	=17	=17
1A	1e	2d]	2r	1a
.	.	2c#	2e	.
4D	[1f	2d	1a	1r
4E	.	.	.	.
4F	.	2A	.	.
4G	.	.	.	.
=18	=18	=18	=18	=18
4A	2f]	2.c	2a	0r
4B	.	.	.	.
1c	4e	.	2g	.
.	4d	4d	.	.
.	2c	4e	2a	.
.	.	4f	.	.
2B	2d	[2g	2b	.
=19	=19	=19	=19	=19
1A	1c	2g]	1cc	1a
.	.	2f#	.	.
1G	2r	1g	2b	1dd
.	2d	.	2g	.
=20	=20	=20	=20	=20
0r	1g	1G	1b	2dd
.	.	.	.	2dd
.	2g	1r	2b	1ee
.	2a	.	2cc	.
=21	=21	=21	=21	=21
0r	2a	0r	2cc	2ff
.	2g	.	2b	2.ee
.	1f	.	[1a	.
.	.	.	.	4dd
.	.	.	.	[2dd
=22	=22	=22	=22	=22
1r	1e	1A	1a]	2dd]
.	.	.	.	2cc#
1D	2r	1d	1f#	1dd
.	2A	.	.	.
=23	=23	=23	=23	=23
1G	1B	2d	1g	0r
.	.	2d	.	.
2G	2B	1e	1r	.
2A	2c	.	.	.
=24	=24	=24	=24	=24
2A	2c	2f	2r	1r
2G	2B	1e	2e	.
1F	1A	.	1a	2r
.	.	2d	.	2a
=25	=25	=25	=25	=25
1E	1B	2.e	2a	1ee
.	.	.	2g	.
.	.	4d	.	.
2r	2A	2c	2a	2ee
2D	2a	2d	4f	2ff
.	.	.	4g	.
=26	=26	=26	=26	=26
2F	2f	2c	4a	2ff
.	.	.	4b	.
2C	2g	2c	1cc	2ee
[1G	1g	2.d	.	[1dd
.	.	.	[2b	.
.	.	4c	.	.
=27	=27	=27	=27	=27
1G]	0d	2.B	4b]	0dd]
.	.	.	4a	.
.	.	.	1g	.
.	.	8A	.	.
.	.	8G	.	.
1D	.	1A	.	.
.	.	.	2f#	.
!! dona nobis
*Ibass	*Itenor	*Itenor	*Icalto	*Icant
!Bassus	!Tenor 2	!Tenor 1	!Altus	!Cantus
*clefF4	*clefGv2	*clefGv2	*clefG2	*clefG2
*k[]	*k[]	*k[]	*k[]	*k[]
*C:ion	*C:ion	*C:ion	*C:ion	*C:ion
*M3/2	*M3/2	*M3/2	*M3/2	*M3/2
=28	=28	=28	=28	=28
1G	2r	2G	1.g	1b
.	2d	2B	.	.
2C	2e	2c	.	2r
=29	=29	=29	=29	=29
2G	2d	2B	2r	1dd
2G	4d	2B	2b	.
.	4g	.	.	.
2r	2c	2r	2cc	2ee
=30	=30	=30	=30	=30
1G	1g	2r	1b	1dd
.	.	2B	.	.
2C	2e	2c	2g	2cc
=31	=31	=31	=31	=31
2G	1.d	2d	2.g	2.b
2G	.	2B	.	.
.	.	.	8f#	8a
.	.	.	8e	8g
2r	.	2r	2f#	2a
=32	=32	=32	=32	=32
1G	2G	1d	1.g	2g
.	2B	.	.	2r
2C	2c	2e	.	2r
=33	=33	=33	=33	=33
2G	2B	2d	1g	2r
2G	4B	4d	.	2dd
.	4d	4B	.	.
2r	2e	2c	2r	2g
=34	=34	=34	=34	=34
1G	1d	1B	1g	2dd
.	.	.	.	2dd
2A	2c	2A	2f	2r
=35	=35	=35	=35	=35
1G	2.B	4B	2e	1r
.	.	4c	.	.
.	.	4d	2.d	.
.	8A	4e	.	.
.	8G	.	.	.
2F	2A	2f	.	2r
.	.	.	4c	.
=36	=36	=36	=36	=36
2.E	2.G	2g	1c	1r
.	.	2e	.	.
8D	4A	.	.	.
8C	.	.	.	.
2D	2F	2f	2B	2r
=37	=37	=37	=37	=37
2C	2G	2e	2c	1ee
2c	2r	2g	2c	.
2F	2r	2a	2cc	2ff
=38	=38	=38	=38	=38
1c	1r	1g	1cc	1ee
2d	2r	2f	2a	2dd
=39	=39	=39	=39	=39
2A	1r	2.e	2a	2.cc
2c	.	.	4g	.
.	.	8d	4f	8b
.	.	8c	.	8a
2G	2r	2d	2g	2b
=40	=40	=40	=40	=40
1C	2r	2c	2e	1.cc
.	2c	2e	2g	.
2r	2F	2f	2a	.
=41	=41	=41	=41	=41
2r	2c	2e	2g	1ee
2c	2.c	4e	4g	.
.	.	4g	4cc	.
2F	.	2a	2cc	2ff
.	4d	.	.	.
=42	=42	=42	=42	=42
1c	4e	2g	1cc	2ee
.	4f	.	.	.
.	2g	1e	.	4ee
.	.	.	.	4dd
2A	[2a	.	2cc	4cc
.	.	.	.	4b
=43	=43	=43	=43	=43
1.F	2a]	1.f	2cc	2a
.	2.A	.	1a	2cc
.	.	.	.	2dd
.	4B	.	.	.
=44	=44	=44	=44	=44
1.C	1.c	1.e	1.g	1.ee
==	==	==	==	==
*-	*-	*-	*-	*-
!!!CDT: 1525/^1526/-1594/2/2
!!!OCY: Italia
!!!AGN: Mass (Parody)
!!!AST: renaissance, vocal
!!!ASW: Motet 1572 (Palestrina)
!!!PWK: Masses, Book 12
!!!RNB: Cadence finals: G,D
!!!YOR: Le Opere Complete, v. 29, p. 54
!!!YOO: Rome, Italy: Fratelli Scalera
!!!END: 1992//
!!!EED: John Miller
!!!YEC: Copyright 2000, John Miller
!!!YEN: United States of America
!!!YEM: Rights to all derivative electronic formats reserved.
!!!YEM: Refer to licensing agreement for further details.
!!!YEM: This file must be accompanied by the licensing agreement.
!!!YEM: A copy of the licensing agreement may be found at http://www.music-cog.ohio-state.edu/HumdrumDatabases/Palestrina/license.txt
!!!EMD: converted to Humdrum by Bret Aarden
